Newaita-dark/mimetypes/16/application-x-trash.svg

<?xml version="1.0" encoding="UTF-8"?>
<svg xmlns="http://www.w3.org/2000/svg" xmlns:xlink="http://www.w3.org/1999/xlink" width="16px" height="16px" viewBox="0 0 16 16" version="1.1">
<defs>
<linearGradient id="linear0" gradientUnits="userSpaceOnUse" x1="254" y1="233.5" x2="254" y2="254.666672" gradientTransform="matrix(0.031253,0,0,0.031253,0.33076,6.719392)">
<stop offset="0" style="stop-color:rgb(0%,0%,0%);stop-opacity:0.27451;"/>
<stop offset="1" style="stop-color:rgb(0%,0%,0%);stop-opacity:0;"/>
</linearGradient>
<radialGradient id="radial0" gradientUnits="userSpaceOnUse" cx="450.908936" cy="189.579361" fx="450.908936" fy="189.579361" r="21.166656" gradientTransform="matrix(0.0000000870852,-0.0390662,-0.0703192,-0.0000000507693,24.742285,31.797665)">
<stop offset="0" style="stop-color:rgb(0%,0%,0%);stop-opacity:0.313726;"/>
<stop offset="0.222222" style="stop-color:rgb(0%,0%,0%);stop-opacity:0.27451;"/>
<stop offset="1" style="stop-color:rgb(0%,0%,0%);stop-opacity:0;"/>
</radialGradient>
<radialGradient id="radial1" gradientUnits="userSpaceOnUse" cx="450.908936" cy="189.579361" fx="450.908936" fy="189.579361" r="21.166656" gradientTransform="matrix(-0.0000000870852,0.0390662,0.0703192,0.0000000507693,-9.196524,-3.76374)">
<stop offset="0" style="stop-color:rgb(0%,0%,0%);stop-opacity:0.313726;"/>
<stop offset="0.222222" style="stop-color:rgb(0%,0%,0%);stop-opacity:0.27451;"/>
<stop offset="1" style="stop-color:rgb(0%,0%,0%);stop-opacity:0;"/>
</radialGradient>
<radialGradient id="radial2" gradientUnits="userSpaceOnUse" cx="450.908936" cy="189.579361" fx="450.908936" fy="189.579361" r="21.166656" gradientTransform="matrix(-0.0000000870852,-0.0390662,0.0703192,-0.0000000507693,-9.196524,31.797665)">
<stop offset="0" style="stop-color:rgb(0%,0%,0%);stop-opacity:0.313726;"/>
<stop offset="0.222222" style="stop-color:rgb(0%,0%,0%);stop-opacity:0.27451;"/>
<stop offset="1" style="stop-color:rgb(0%,0%,0%);stop-opacity:0;"/>
</radialGradient>
<radialGradient id="radial3" gradientUnits="userSpaceOnUse" cx="450.908936" cy="189.579361" fx="450.908936" fy="189.579361" r="21.166656" gradientTransform="matrix(0.0000000870852,0.0390662,-0.0703192,0.0000000507693,24.742284,-3.763741)">
<stop offset="0" style="stop-color:rgb(0%,0%,0%);stop-opacity:0.313726;"/>
<stop offset="0.222222" style="stop-color:rgb(0%,0%,0%);stop-opacity:0.27451;"/>
<stop offset="1" style="stop-color:rgb(0%,0%,0%);stop-opacity:0;"/>
</radialGradient>
<linearGradient id="linear1" gradientUnits="userSpaceOnUse" x1="940" y1="1695.118164" x2="940" y2="175.118118" gradientTransform="matrix(0.00826902,0,0,0.00826902,0,0)">
<stop offset="0" style="stop-color:rgb(64.705884%,83.92157%,65.490198%);stop-opacity:1;"/>
<stop offset="1" style="stop-color:rgb(78.431374%,90.196079%,78.823531%);stop-opacity:1;"/>
</linearGradient>
<linearGradient id="linear2" gradientUnits="userSpaceOnUse" x1="249.189423" y1="233.5" x2="249.189423" y2="254.666687" gradientTransform="matrix(0.0149471,0,0,0.0546927,7.521211,-8.180455)">
<stop offset="0" style="stop-color:rgb(0%,0%,0%);stop-opacity:0.27451;"/>
<stop offset="1" style="stop-color:rgb(0%,0%,0%);stop-opacity:0;"/>
</linearGradient>
<linearGradient id="linear3" gradientUnits="userSpaceOnUse" x1="338.666656" y1="233.5" x2="338.666656" y2="-168.666672" gradientTransform="matrix(0.031253,0,0,0.031253,0,6.719392)">
<stop offset="0" style="stop-color:rgb(40.000001%,73.333335%,41.568628%);stop-opacity:1;"/>
<stop offset="1" style="stop-color:rgb(50.588238%,78.039217%,51.764709%);stop-opacity:1;"/>
</linearGradient>
<linearGradient id="linear4" gradientUnits="userSpaceOnUse" x1="920" y1="1695.118164" x2="920" y2="175.118118" gradientTransform="matrix(0.264583,0,0,0.264583,-185.208328,-215)">
<stop offset="0" style="stop-color:rgb(40.000001%,73.333335%,41.568628%);stop-opacity:1;"/>
<stop offset="1" style="stop-color:rgb(50.588238%,78.039217%,51.764709%);stop-opacity:1;"/>
</linearGradient>
</defs>
<g id="surface1">
<path style=" stroke:none;fill-rule:nonzero;fill:url(#linear0);" d="M 3.96875 14.015625 L 11.578125 14.015625 L 11.578125 14.679688 L 3.96875 14.679688 Z M 3.96875 14.015625 "/>
<path style=" stroke:none;fill-rule:nonzero;fill:url(#radial0);" d="M 11.578125 14.015625 L 12.898438 14.015625 L 12.898438 13.355469 L 11.578125 13.355469 Z M 11.578125 14.015625 "/>
<path style=" stroke:none;fill-rule:nonzero;fill:url(#radial1);" d="M 3.96875 14.015625 L 2.644531 14.015625 L 2.644531 14.679688 L 3.96875 14.679688 Z M 3.96875 14.015625 "/>
<path style=" stroke:none;fill-rule:nonzero;fill:url(#radial2);" d="M 3.96875 14.015625 L 2.644531 14.015625 L 2.644531 13.355469 L 3.96875 13.355469 Z M 3.96875 14.015625 "/>
<path style=" stroke:none;fill-rule:nonzero;fill:url(#radial3);" d="M 11.578125 14.015625 L 12.898438 14.015625 L 12.898438 14.679688 L 11.578125 14.679688 Z M 11.578125 14.015625 "/>
<path style=" stroke:none;fill-rule:nonzero;fill:url(#linear1);" d="M 9.269531 1.449219 L 3.308594 1.449219 C 2.941406 1.449219 2.644531 1.742188 2.644531 2.109375 L 2.644531 13.355469 C 2.644531 13.722656 2.941406 14.015625 3.308594 14.015625 L 12.238281 14.015625 C 12.605469 14.015625 12.898438 13.722656 12.898438 13.355469 L 12.898438 5.078125 Z M 9.269531 1.449219 "/>
<path style=" stroke:none;fill-rule:nonzero;fill:rgb(0%,0%,0%);fill-opacity:0.235294;" d="M 2.644531 13.097656 L 2.644531 13.355469 C 2.644531 13.722656 2.941406 14.015625 3.308594 14.015625 L 12.238281 14.015625 C 12.605469 14.015625 12.898438 13.722656 12.898438 13.355469 L 12.898438 13.097656 C 12.898438 13.464844 12.605469 13.761719 12.238281 13.761719 L 3.308594 13.761719 C 2.941406 13.761719 2.644531 13.464844 2.644531 13.097656 Z M 2.644531 13.097656 "/>
<path style=" stroke:none;fill-rule:nonzero;fill:url(#linear2);" d="M 9.261719 4.589844 L 12.402344 4.589844 L 12.898438 5.085938 L 12.898438 5.746094 L 9.261719 5.746094 Z M 9.261719 4.589844 "/>
<path style=" stroke:none;fill-rule:nonzero;fill:rgb(96.470588%,96.470588%,96.470588%);fill-opacity:0.588235;" d="M 3.308594 1.449219 C 2.941406 1.449219 2.644531 1.742188 2.644531 2.109375 L 2.644531 2.359375 C 2.644531 1.992188 2.941406 1.695312 3.308594 1.695312 L 9.269531 1.695312 L 12.898438 5.324219 L 12.898438 5.078125 L 9.269531 1.449219 Z M 3.308594 1.449219 "/>
<path style=" stroke:none;fill-rule:nonzero;fill:url(#linear3);" d="M 12.898438 5.078125 L 9.269531 1.449219 L 9.269531 4.414062 C 9.269531 4.78125 9.566406 5.078125 9.933594 5.078125 Z M 12.898438 5.078125 "/>
<path style=" stroke:none;fill-rule:nonzero;fill:rgb(0%,0%,0%);fill-opacity:0.235294;" d="M 9.269531 4.257812 L 9.269531 4.414062 C 9.269531 4.78125 9.566406 5.078125 9.933594 5.078125 L 12.898438 5.078125 L 12.742188 4.921875 L 9.933594 4.921875 C 9.566406 4.921875 9.269531 4.625 9.269531 4.257812 Z M 9.269531 4.257812 "/>
<path style=" stroke:none;fill-rule:nonzero;fill:rgb(100%,100%,100%);fill-opacity:0.392157;" d="M 9.269531 1.449219 L 9.269531 1.695312 L 12.652344 5.078125 L 12.898438 5.078125 Z M 9.269531 1.449219 "/>
<path style=" stroke:none;fill-rule:nonzero;fill:rgb(12.941177%,12.941177%,12.941177%);fill-opacity:1;" d="M 9.269531 1.402344 C 9.246094 1.402344 9.222656 1.421875 9.222656 1.449219 L 9.222656 4.414062 C 9.222656 4.808594 9.539062 5.125 9.933594 5.125 L 12.898438 5.125 C 12.917969 5.125 12.9375 5.113281 12.941406 5.09375 C 12.949219 5.078125 12.945312 5.058594 12.933594 5.042969 L 9.304688 1.414062 C 9.296875 1.40625 9.28125 1.402344 9.269531 1.402344 Z M 9.316406 1.5625 L 12.785156 5.03125 L 9.933594 5.03125 C 9.589844 5.03125 9.316406 4.757812 9.316406 4.414062 Z M 9.316406 1.5625 "/>
<path style=" stroke:none;fill-rule:nonzero;fill:rgb(12.941177%,12.941177%,12.941177%);fill-opacity:1;" d="M 3.308594 1.402344 C 2.914062 1.402344 2.597656 1.71875 2.597656 2.109375 L 2.597656 13.355469 C 2.597656 13.746094 2.914062 14.0625 3.308594 14.0625 L 12.238281 14.0625 C 12.628906 14.0625 12.945312 13.746094 12.945312 13.355469 L 12.945312 5.078125 C 12.945312 5.0625 12.941406 5.050781 12.933594 5.042969 L 9.304688 1.414062 C 9.296875 1.40625 9.285156 1.402344 9.269531 1.402344 Z M 3.308594 1.496094 L 9.25 1.496094 L 12.851562 5.097656 L 12.851562 13.355469 C 12.851562 13.695312 12.578125 13.96875 12.238281 13.96875 L 3.308594 13.96875 C 2.964844 13.96875 2.691406 13.695312 2.691406 13.355469 L 2.691406 2.109375 C 2.691406 1.769531 2.964844 1.496094 3.308594 1.496094 Z M 3.308594 1.496094 "/>
<path style="fill-rule:nonzero;fill:url(#linear4);stroke-width:3;stroke-linecap:round;stroke-linejoin:round;stroke:rgb(12.941177%,12.941177%,12.941177%);stroke-opacity:1;stroke-miterlimit:4;" d="M 196.606225 76.972118 C 194.98138 79.846844 193.606512 84.221426 193.606512 86.971163 C 193.606512 87.596104 193.606512 88.47102 193.856488 89.595913 L 173.483433 54.724243 C 172.858493 53.59935 172.358541 51.974505 172.358541 50.474648 C 172.358541 48.974792 172.858493 47.224959 173.483433 46.100066 L 183.232502 29.101689 L 172.358541 22.977274 L 207.730163 22.227346 L 224.978516 53.224386 L 213.979566 46.974983 L 196.606225 76.972118 M 212.104745 -21.393488 C 215.229447 -26.767975 220.228969 -29.642701 226.478372 -29.642701 C 233.10274 -29.642701 238.22725 -26.517999 241.976892 -20.268596 L 247.476367 -11.019479 L 228.353193 22.102358 L 197.356153 4.104077 L 212.104745 -21.393488 M 214.35453 104.969444 C 205.230401 104.969444 197.60613 97.345173 197.60613 88.096056 C 197.60613 85.471306 198.731022 81.096724 200.355867 78.346987 L 205.480378 69.09787 L 243.976701 69.09787 L 243.976701 104.969444 L 214.35453 104.969444 M 245.226582 -22.393393 C 242.851809 -26.517999 239.602119 -29.517713 235.727489 -31.142558 L 275.598682 -31.142558 C 279.098347 -31.142558 281.848085 -29.642701 283.47293 -26.892963 L 293.471975 -10.019575 L 304.09596 -16.393966 L 286.972595 14.478086 L 251.725961 13.978134 L 262.599923 7.853719 L 245.226582 -22.393393 M 306.72071 69.472834 C 311.595244 69.472834 315.594862 68.222954 319.094528 65.598204 L 298.97145 100.594862 C 297.346605 103.3446 294.346891 104.969444 290.972214 104.969444 L 271.974028 104.969444 L 271.974028 117.468251 L 253.850758 87.096151 L 271.974028 56.84904 L 271.974028 69.472834 L 306.72071 69.472834 M 322.21923 40.225627 C 323.719086 42.850377 324.594003 45.600114 324.594003 48.474839 C 324.594003 54.349278 320.844361 60.598682 315.594862 63.473407 C 313.220089 64.723288 309.845411 65.598204 306.345745 65.598204 L 295.72176 65.598204 L 276.598586 32.476367 L 307.470638 14.85305 L 322.21923 40.225627 " transform="matrix(0.031253,0,0,0.031253,0,6.719392)"/>
</g>
</svg>

<svg height="16pt" viewBox="0 0 16 16" width="16pt" xmlns="http://www.w3.org/2000/svg" xmlns:xlink="http://www.w3.org/1999/xlink"><linearGradient id="a"><stop offset="0" stop-opacity=".275"/><stop offset="1" stop-opacity="0"/></linearGradient><linearGradient id="b" gradientUnits="userSpaceOnUse" x1="8.2675" x2="8.2675" xlink:href="#a" y1="14.016875" y2="14.67834375"/><linearGradient id="c"><stop offset="0" stop-opacity=".314"/><stop offset=".222" stop-opacity=".275"/><stop offset="1" stop-opacity="0"/></linearGradient><radialGradient id="d" cx="450.909" cy="189.579" gradientTransform="matrix(0 -.03907 -.07032 0 24.742 31.798)" gradientUnits="userSpaceOnUse" r="21.167" xlink:href="#c"/><radialGradient id="e" cx="450.909" cy="189.579" gradientTransform="matrix(0 .03907 .07032 0 -9.197 -3.764)" gradientUnits="userSpaceOnUse" r="21.167" xlink:href="#c"/><radialGradient id="f" cx="450.909" cy="189.579" gradientTransform="matrix(0 -.03907 .07032 0 -9.197 31.798)" gradientUnits="userSpaceOnUse" r="21.167" xlink:href="#c"/><radialGradient id="g" cx="450.909" cy="189.579" gradientTransform="matrix(0 .03907 -.07032 0 24.742 -3.764)" gradientUnits="userSpaceOnUse" r="21.167" xlink:href="#c"/><linearGradient id="h" gradientTransform="matrix(.00826902 .0001273 -.0001273 .00826902 0 0)" gradientUnits="userSpaceOnUse" x1="940" x2="940" y1="1695.118" y2="175.118"><stop offset="0" stop-color="#a5d6a7"/><stop offset="1" stop-color="#c8e6c9"/></linearGradient><linearGradient id="i" gradientTransform="matrix(.01495 0 0 .0547 7.521 -8.18)" gradientUnits="userSpaceOnUse" x1="249.189" x2="249.189" xlink:href="#a" y1="233.5" y2="254.667"/><linearGradient id="j"><stop offset="0" stop-color="#66bb6a"/><stop offset="1" stop-color="#81c784"/></linearGradient><linearGradient id="k" gradientUnits="userSpaceOnUse" x1="10.58334375" x2="10.58334375" xlink:href="#j" y1="14.016875" y2="1.44915625"/><linearGradient id="l" gradientUnits="userSpaceOnUse" x1="58.2056" x2="58.2056" xlink:href="#j" y1="233.49432044" y2="-168.66727956"/><path d="m3.969 14.016h7.61v.664h-7.61zm0 0" fill="url(#b)"/><path d="m11.578 14.016h1.32v-.66h-1.32zm0 0" fill="url(#d)"/><path d="m3.969 14.016h-1.324v.664h1.324zm0 0" fill="url(#e)"/><path d="m3.969 14.016h-1.324v-.66h1.324zm0 0" fill="url(#f)"/><path d="m11.578 14.016h1.32v.664h-1.32zm0 0" fill="url(#g)"/><path d="m9.27 1.45h-5.961a.66.66 0 0 0 -.664.66v11.245c0 .368.296.66.664.66h8.93c.366 0 .66-.292.66-.66v-8.277zm0 0" fill="url(#h)"/><path d="m2.645 13.098v.257c0 .368.296.66.664.66h8.93c.366 0 .66-.292.66-.66v-.257a.66.66 0 0 1 -.66.664h-8.93a.664.664 0 0 1 -.664-.664zm0 0" fill-opacity=".235"/><path d="m9.262 4.59h3.14l.496.496v.66h-3.636zm0 0" fill="url(#i)"/><path d="m3.309 1.45a.66.66 0 0 0 -.664.66v.25c0-.368.296-.665.664-.665h5.96l3.63 3.63v-.247l-3.631-3.628zm0 0" fill="#f6f6f6" fill-opacity=".588"/><path d="m12.898 5.078-3.628-3.628v2.965c0 .367.296.664.664.664zm0 0" fill="url(#k)"/><path d="m9.27 4.258v.156c0 .367.296.664.664.664h2.964l-.156-.156h-2.808a.664.664 0 0 1 -.664-.664zm0 0" fill-opacity=".235"/><path d="m9.27 1.45v.245l3.382 3.383h.246zm0 0" fill="#fff" fill-opacity=".392"/><path d="m9.27 1.402a.047.047 0 0 0 -.047.047v2.965c0 .395.316.711.71.711h2.965c.02 0 .04-.012.043-.031.008-.016.004-.035-.007-.051l-3.63-3.629c-.007-.008-.023-.012-.034-.012zm.046.16 3.47 3.47h-2.853a.614.614 0 0 1 -.618-.618zm0 0" fill="#212121"/><path d="m3.309 1.402a.708.708 0 0 0 -.711.707v11.246c0 .391.316.707.71.707h8.93c.39 0 .707-.316.707-.707v-8.277c0-.016-.004-.027-.011-.035l-3.63-3.629c-.007-.008-.019-.012-.034-.012zm0 .094h5.941l3.602 3.602v8.257c0 .34-.274.614-.614.614h-8.93a.613.613 0 0 1 -.617-.614v-11.245c0-.34.274-.613.618-.613zm0 0" fill="#212121"/><path d="m196.606 76.972c-1.625 2.875-3 7.25-3 10 0 .624 0 1.499.25 2.624l-20.373-34.872c-.625-1.125-1.124-2.75-1.124-4.25s.5-3.249 1.124-4.374l9.75-16.998-10.874-6.125 35.371-.75 17.249 30.997-11-6.249zm15.499-98.365c3.124-5.375 8.124-8.25 14.373-8.25 6.625 0 11.75 3.125 15.499 9.374l5.5 9.25-19.124 33.121-30.997-17.998zm2.25 126.362c-9.125 0-16.749-7.624-16.749-16.873 0-2.625 1.125-7 2.75-9.749l5.124-9.25h38.497v35.872zm30.872-127.362c-2.375-4.125-5.625-7.125-9.5-8.75h39.873c3.5 0 6.25 1.5 7.874 4.25l9.999 16.873 10.624-6.374-17.123 30.872-35.247-.5 10.873-6.124zm61.494 91.866c4.874 0 8.874-1.25 12.374-3.875l-20.124 34.997c-1.624 2.75-4.624 4.374-7.999 4.374h-18.998v12.5l-18.123-30.373 18.123-30.247v12.624zm15.498-29.247c1.5 2.624 2.375 5.374 2.375 8.249 0 5.874-3.75 12.124-9 14.998-2.374 1.25-5.749 2.125-9.248 2.125h-10.624l-19.123-33.122 30.872-17.623z" fill="url(#l)" stroke="#212121" stroke-linecap="round" stroke-linejoin="round" stroke-width="3" transform="matrix(.03125 0 0 .03125 0 6.72)"/></svg>
